X:1
T:Title
%%score { 1 | ( 2 3 ) }
L:1/8
Q:1/4=118
M:4/4
K:G
V:1 treble nm="Grand Piano"
V:2 bass 
V:3 bass 
V:1
 G2 B2 G2 D2 | E2 G2 D4 | GGG[GA] [GB]2 [Gd]2 | [FA]4 G2 z2 | G2 B2 G2 D2 | E2 G2 D4 | %6
w: E.~S.~Lorenz * * *||||||
 GGG[GA] [GB]2 [Gd]2 | [FA]4 G2 z2 | [FA]2 [FA]2 [FA]2 [EG]A | B2 e2 d4 | %10
w: ||||
 [Ac]2 [Ac]2 [Ac]2 [GB][Ac] | [Bd]2 [GB]2 [FA]4 | G2 B2 G2 D2 | E2 G2 D4 | GGG[GA] [GB]2 [Gd]2 | %15
w: |||||
[M:8/4] [FA]4 .G4 z8 |] %16
w: |
V:2
 [G,B,]2 [G,D]2 [G,B,]2 [G,B,]2 | [C,G,C]2 [E,G,C]2 [G,B,]4 | %2
 [E,B,E][E,B,E][E,B,][E,^C] [D,D]2 [D,B,]2 | [D,C]4 [G,B,]2 z2 | [G,B,]2 [G,D]2 [G,B,]2 [G,B,]2 | %5
 [C,G,C]2 [E,G,C]2 [G,B,]4 | [E,B,E][E,B,E][E,B,][E,^C] [D,D]2 [D,B,]2 | [D,C]4 [G,B,]2 z2 | %8
 [D,D]2 [D,D]2 [D,D]2 z[K:treble] F | [G,DG]2 [G,CG]2 [G,B,G]4 | [D,D]2 [D,D]2 [D,D]2 [D,D]2 | %11
 [G,D]2 [G,D]2 [D,D]4 | [G,B,]2 [G,D]2 [G,B,]2 [G,B,]2 | [C,G,C]2 [E,G,C]2 [G,B,]4 | %14
 [E,B,E][E,B,E][E,B,][E,^C] [D,D]2 [D,B,]2 |[M:8/4] [D,C]4 .[G,B,]4 z8 |] %16
V:3
 x8 | x8 | x8 | x8 | x8 | x8 | x8 | x8 | z4 z2 [D,D]2[K:treble] | x8 | x8 | x8 | x8 | x8 | x8 | %15
[M:8/4] x16 |] %16

